X:28
T:Western Country
T:Fly Around My Pretty Little Miss
T:Suzanna Gal
Z:abc-transcription Josh Larios <hades@elsewhere.org>, 2014.01.20
B:Levenson's Festival Tunes, p.80
M:4/4
L:1/8
K:D
(de) |:"D"f2e2d2B2 | (AB)A2F2(FG) | A2A2A(Bd2) | f4f2e2 |
"D"f2e2d2dB | (AB) AGF2(FG) | "A"A2A2 BA c2 |1 "D"d4d2e2 :|2 "D"d4d2(fg) |
|:"D"a2a2f2a2 | "G"b6(fg) | "D"a2a2(fe)d2 | "A"e6(fg) |
"D"a2a2(fg)a2 | "G"b6(fg) | "A"a2f2 e(d cA) |1 "D"d4d2(fg) :|2 "D"d2d4(de) |]

